64x64/apps/steam_icon_2870.svg

<svg height="64" width="64" xmlns="http://www.w3.org/2000/svg"><rect height="56" opacity=".2" rx="4.2" width="56" x="4" y="5"/><rect fill="#ffc107" height="56" rx="4.2" width="56" x="4" y="4"/><path d="m17.375 16h12.375l4.5 7.083 5.625-7.083h14.625l-14.625 17 9 17h-13.5l-4.5-6.8-5.625 6.8h-15.75l15.75-18.133z" opacity=".1"/><path d="m17.375 15h12.375l4.5 7.083 5.625-7.083h14.625l-14.625 17 9 17h-13.5l-4.5-6.8-5.625 6.8h-15.75l15.75-18.133z" fill="#3e3e3e"/><path d="m8.2 4a4.19 4.19 0 0 0 -4.2 4.2v1a4.19 4.19 0 0 1 4.2-4.2h47.6a4.19 4.19 0 0 1 4.2 4.2v-1a4.19 4.19 0 0 0 -4.2-4.2z" fill="#f4f4f7" opacity=".2"/></svg>

<svg xmlns="http://www.w3.org/2000/svg" width="64" height="64"><rect style="opacity:.2" width="56" height="56" x="4" y="5" rx="4.2" ry="4.2"/><rect style="fill:#ffc107" width="56" height="56" x="4" y="4" rx="4.2" ry="4.2"/><path style="opacity:.1" d="M17.375 16H29.75l4.5 7.083L39.875 16H54.5L39.875 33l9 17h-13.5l-4.5-6.8L25.25 50H9.5l15.75-18.133z"/><path style="fill:#3e3e3e" d="M17.375 15H29.75l4.5 7.083L39.875 15H54.5L39.875 32l9 17h-13.5l-4.5-6.8L25.25 49H9.5l15.75-18.133z"/><path style="fill:#f4f4f7;opacity:.2" d="M8.2 4A4.19 4.19 0 0 0 4 8.2v1A4.19 4.19 0 0 1 8.2 5h47.6A4.19 4.19 0 0 1 60 9.2v-1A4.19 4.19 0 0 0 55.8 4H8.2z"/></svg>
